X:30
T: Da Lounge Bar
T: The Lounge Bar
C: att. to Annlaug Borsheim
D: also appears in The Happy Hardanger on S-J Summer's album Nesta
H: presumably named for a session pub in Lerwick, Shetland
N: as played by Sarah-Jane Summers on hardanger fiddle
Z: Transcribed by ijs from www.youtube.com/watchv=CPw6d2Lr1Rg
Z: sounds in Eb because her hardingfele was tuned semitone up, notes here as fingered
Q: 3/8=80
K: D
L: 1/8
M: 6/8
A,3|:B,>DF E3|D>FA d2c|B>GB A>FD|E>GF E3|
B,>DF E3|D>FA d2c|B>GB A>FD|E2 D-D3:|
|:d2d- dcA|F3-FEF|G/B/d2- dAF|E3-EDE|
F2 F- FED|B,3-B,A,B,|C/D/E2- EFE|D3-D3:|
|:d>cd c3|B>df e2c|d>cB AdB|AFD E3|
d>cd c3|B>df e2c|d>cB A>dF|E>GE D3:|
|:d2d- dcA|F3- FEF|G/B/d2- dAF|E3-EDE|
F2 F- FED|B,3-B,A,B,|C/D/E2- EFE|D3-D3:|
